X:2346
T:Untitled
C:Traditional
O:Isle of Man
Z:Kiaull Vannin 346
L:1/4
M:3/4 
Q:80 
K:D 
F|B d B|A c A|G F2-|F z B/B/|d B B|c B B|B2 B| 
d B d|A c A|A F2-|F z B/B/|f d B|c B B|B2 z/B/|| 
B d f|b a g|g f2-|f z e/d/|B d f|b a g|f3-| 
g a|b a g|f d c|c B2-|B z d/(e/|f) e d|c B B|B2|| 

